X: 1
T: Barabel Phadruig
M: 9/8
L: 1/8
R: slip jig
K: Gmaj
|:e2A ABA B2d|e2A ABA BAG|e2A ABA B2d|ede g2e dBG:|
|:B2a a2a g2e|B2a a2a ged|B2a a2a g2e|fga e2B BAG|
